X:1
T:Man with the Microphone
M:6/8
L:1/8
K:F
 z4 z D| D2 A A2 G| F2 E D2 D| AAAG-G =B| A3- A z A| d2 d dcB| A2 D D2 E|\
 F2 E F2 G| A3- A z A| d2 f e2 A| d2 f e2 A| d2 f e2 A| d3- d z A|\
 d2 A A2 G| F2 G A2 A| A2 G F2 E| D3 A2 A| d2 d dcB| A2 A GFG| AAA AFE|\
 D4- D z|
